X:89
T:Hunter's Purse (reel), The  
B:CRE1.119 (ScÃÂÃÂÃÂÃÂ©ach)
F:file ID: cre.1/089hunt_p
S:Matthew Tiernan
N:Gaelic "scÃÂÃÂÃÂÃÂ©ach" = "thornbush"
M:C
L:1/8
Q:180
R:reel
K:Am
Bd|eAA2 AGE^F|G2A^F GED2|cBcd eged|Bde^f gedB|
eAA2 AGE^F|G2A^F GED2|cBcd eged|cABG A2:|
|:Bd|eaa2 age^f|g2a^f ged2|cBcd eged|Bde^f gedB|
eaa2 age^f|g2a^f ged2|cBcd eged|cABG A2:|

%%%

